X:1
T:Baur, was trägst im Sacke?
T:Orlando di Lasso
T:Baur, was trägst im Sacke?
T:CPDL - Creative Commons Attribution Non Commercial 3.0
T:CPDL - Creative Commons Attribution Non Commercial 3.0
T:CPDL - Creative Commons Attribution Non Commercial 3.0
T:CPDL - Creative Commons Attribution Non Commercial 3.0
C:Orlando di Lasso
Z:CPDL - Creative Commons Attribution Non Commercial 3.0
%%score [ 1 2 3 4 ]
L:1/8
Q:1/4=130
M:2/2
K:G
V:1 treble nm="Soprano"
V:2 treble nm="Alto"
V:3 treble-8 nm="Tenor"
V:4 bass nm="Bass"
V:1
 z4 d4- | d4 B4 | z2 d4 B2 | A2 A2 F2 G2- | G F/E/ F2 G4 | z2 d4 B2 | z2 d4 B2 | A2 A2 F2 G2- | %8
w: Baur,|_ Baur,|Baur, Baur,|was trägst im Sa-|* * * * cke?|Baur, Baur,|Baur, Baur,|was trägst im Sa-|
 G F/E/ F2 G4 | z2 G2 G4 | G4 E4 | z4 B4 z4 | B4 B4 c2 A2 | A4 A4 B4 | z4 G4 c4 | c2 B2 A4 B4 | %16
w: * * * * cke,|im Sa-|cke? Nichts|nichts,|nichts, denn Käs' und|But- ter, nichts,|nichts, denn|Käs' und But- ter.|
 A2 A2 F4 | G2 G2 E2 E2 | B3 A/G/ F3 E/D/ | ^C4 D4 | D2 F2 D4 | E2 G2 E2 E2 | B3 A/G/ F3 E/D/ | %23
w: Sollt der Baur,|sollt der Baur nit|voll _ _ _ _ _|_ sein,|sollt der Baur,|sollt der Baur nit|voll _ _ _ _ _|
 ^C4 D4 | z2 G4 A2 | B6 B2 | A2 A2 B2 B2 | d4 c4 | z4 z2 e2 | e2 d2 B2 E2 | e4 z2 E2 | %31
w: _ sein,|trinkt er|nichts denn|küh- len Wein, trinkt|er nichts|denn|küh- len Wein: Pfeif|auf, pfeif|
 B4 z2 G2 E2 c2 | B3 A/G/ FE F2 | G2 G2 E2 c2 | B3 A/G/ FE F2 | G2 G2 E2 c2 | B3 A/G/ FE F2 | %37
w: auf! Der Baur will|tan- * * * * *|zen, der Baur will|tan- * * * * *|zen, der Baur will|tan- * * * * *|
 G2 G2 G4 | G2 gf ed c2 | B16 |] %40
w: zen, der Baur|will tan- * * * *|zen!|
V:2
 z4 F4- | F4 G4 | z2 F4 G2 | F4 D2 D2 | D4 B,4 | z2 F4 G2 | z2 F4 G2 | F4 D2 D2 | D4 B,2 B,2 | %9
w: Baur,|_ Baur,|Baur, Baur,|was trägst im|Sa- cke?|Baur, Baur,|Baur, Baur,|was trägst im|Sa- cke, was|
 D2 E2 D4 | E4 C4 | z4 G4 z4 | G4 G2 G4 F2 | E4 F4 G4 | z4 E4 G2 A2 | A2 G2 F4 G4 | F2 E2 D4 | %17
w: trägst im Sa-|cke? Nichts,|nichts,|nichts, denn Käs' und|But- ter, nichts,|nichts, denn Käs'|_ und But- ter.|Sollt der Baur,|
 E2 D2 C4 | D2 B,3 A,/G,/ F,G, | A,4 A,4 | B,2 D2 B,4 | C2 D2 C4 | D2 B,3 A,/G,/ F,G, | A,4 B,4 | %24
w: sollt der Baur|nit voll _ _ _ _|_ sein,|sollt der Baur,|sollt der Baur|nit voll _ _ _ _|_ sein,|
 D4 E4 | D3 E F2 G2 | E2 F2 G4 | D4 E4 | D3 E F2 G2 | E2 F2 G4 | G2 C2 G4 | z2 G,2 D2 D2 C2 E2 | %32
w: trinkt er|nichts _ _ denn|küh- len Wein,|trinkt er|nichts _ _ denn|küh- len Wein:|* Pfeif auf,|pfeif auf! Der Baur will|
 G2 FE DC D2 | D2 D2 C2 E2 | G2 FE DC D2 | D2 D2 C2 E2 | G2 FE DC D2 | D4 E4 | D2 E2 F4 | G16 |] %40
w: tan- * * * * *|zen, der Baur will|tan- * * * * *|zen, der Baur will|tan- * * * * *|zen, der|Baur will tan-|zen!|
V:3
 B8 | d8 | B4 d4 | d4 A2 B2 | A4 G4 | B4 d4 | B4 d4 | d4 A2 B2 | A2 A2 d2 d2 | B2 c3 B/A/ B2 | %10
w: Baur,|Baur,|Baur, Baur,|was trägst im|Sa- cke?|Baur, Baur,|Baur, Baur,|was trägst im|Sa- cke, was trägst|im Sa- * * *|
 c4 z4 | G4 z4 B4 | z2 d4 e2 e2 d2 | ^c4 d4 z4 | d4 z2 e4 e2 | =f2 d2 d4 d4 | d2 c2 A4 | %17
w: cke?|Nichts, nichts,|nichts, denn Käs' und|But- ter,|nichts, nichts, denn|Käs' und But- ter.|Sollt der Baur,|
 c2 B2 G2 G2- | G2 d3 c/B/ A2- | A G/F/ E2 F4 | G2 A2 G4 | G2 B2 G2 G2- | G2 d3 c/B/ A2- | %23
w: sollt der Baur nit|* voll _ _ _|_ _ _ _ sein,|sollt der Baur,|sollt der Baur nit|* voll _ _ _|
 A G/F/ E2 G4 | B4 c4 | GABc d2 e2 | ^c2 d2 G4 | z2 G4 A2 | B6 B2 | A2 A2 G4 | z2 A2 e4 | %31
w: _ _ _ _ sein,|trinkt er|nichts _ _ _ _ denn|küh- len Wein,|trinkt er|nichts denn|küh- len Wein:|Pfeif auf,|
 z2 E2 B2 B2 G2 G2 | d3 c/B/ AG A2 | B2 B2 G2 G2 | d3 c/B/ AG A2 | B2 B2 G2 G2 | d3 c/B/ AG A2 | %37
w: pfeif auf! Der Baur will|tan- * * * * *|zen, der Baur will|tan- * * * * *|zen, der Baur will|tan- * * * * *|
 B2 B2 c4 | B4 cd e2 | d16 |] %40
w: zen, der Baur|will tan- * *|zen!|
V:4
 z4 B,4- | B,4 G,4 | z2 B,4 G,2 | z2 D,2 D,2 B,,2 | D,4 G,,4 | z2 B,4 G,2 | z2 B,4 G,2 | %7
w: Baur,|_ Baur,|Baur, Baur,|was trägst im|Sa- cke?|Baur, Baur,|Baur, Baur,|
 z2 D,2 D,2 B,,2 | D,4 G,,2 G,2 | G,2 E,2 G,4 | C,4 z4 | C,4 z4 G,4 | z2 G,4 E,2 C,2 D,2 | %13
w: was trägst im|Sa- cke, was|trägst im Sa-|cke?|||
 A,,4 D,4 z4 | G,4 z2 C4 A,2 | =F,2 G,2 D,4 G,4 | D,2 A,2 D,4 | C,2 G,2 C,2 C,2 | %18
w: ||||* * * nit|
 G,3 F,/E,/ D,3 C,/B,,/ | A,,4 D,4 | G,,2 D,2 G,,4 | C,2 G,2 C,2 C,2 | G,3 F,/E,/ D,3 C,/B,,/ | %23
w: voll _ _ _ _ _|_ sein,||sollt der Baur nit|voll _ _ _ _ _|
 A,,4 G,,4- | G,,4 z4 | z8 | z8 | B,,4 C,4 | G,,A,,B,,C, D,2 E,2 | ^C,2 D,2 G,,2 =C,2 | C4 z2 C,2 | %31
w: _ sein,||||trinkt er|nichts _ _ _ _ denn|küh- len Wein, Pfeif|auf, pfeif|
 G,6 G,2 C,2 C,2 | G,,A,,B,,C, D,E, D,2 | G,,2 G,2 C,2 C,2 | G,,A,,B,,C, D,E, D,2 | %35
w: auf! * * *||||
 G,,2 G,2 C,2 C,2 | G,,A,,B,,C, D,E, D,2 | G,,2 G,2 C,2 C,2 | G,F,E,D, C,B,, C,2 | G,16 |] %40
w: ||* der Baur will|tan- * * * * * *|zen!|

